public/icons/responsive.svg

<svg width="72" height="72" viewBox="0 0 72 72" fill="none" xmlns="http://www.w3.org/2000/svg">
<path fill-rule="evenodd" clip-rule="evenodd" d="M31.1951 32.674C31.1951 32.0208 30.6661 31.4912 30.0123 31.4912H4.87886C4.22569 31.4912 3.69611 32.0208 3.69611 32.674V63.869C3.69611 64.5222 4.22569 65.0518 4.87886 65.0518H30.0123C30.6661 65.0518 31.1951 64.5222 31.1951 63.869V32.674ZM28.8296 62.6863H6.06161V33.8567H28.8296V62.6863Z" fill="black"/>
<path d="M16.2651 66.0867H18.6358C19.289 66.0867 19.8186 66.6162 19.8186 67.2694C19.8186 67.9226 19.289 68.4522 18.6358 68.4522H16.2651C15.6114 68.4522 15.0824 67.9226 15.0824 67.2694C15.0824 66.6162 15.6114 66.0867 16.2651 66.0867Z" fill="black"/>
<path d="M58.8419 32.2305H61.9466C62.6003 32.2305 63.1293 32.7601 63.1293 33.4132C63.1293 34.0664 62.6003 34.596 61.9466 34.596H58.8419C58.1887 34.596 57.6591 34.0664 57.6591 33.4132C57.6591 32.7601 58.1887 32.2305 58.8419 32.2305Z" fill="black"/>
<path fill-rule="evenodd" clip-rule="evenodd" d="M68.3292 0.000238612H52.2985C50.3205 0.000238612 48.6406 1.54567 48.6406 3.52366V9.75794H12.2923C8.60199 9.76891 5.61681 12.7645 5.61797 16.4542V27.7949H4.89376C2.16789 27.7949 -0.00010191 30.0622 -0.00010191 32.791V66.9591C-0.0076096 68.2597 0.505802 69.5094 1.42636 70.4288C2.34634 71.3482 3.59609 71.8611 4.89665 71.8524H30.9824C32.0497 71.8616 33.0736 71.4343 33.818 70.6696C34.5607 69.9039 35.0389 68.9319 34.8911 67.8716V62.0947H62.4669C66.1664 62.0883 69.1689 59.0985 69.1909 55.3984V51.1693C69.1735 50.5051 68.6318 49.975 67.9677 49.9715H66.234V38.4397H68.3292C70.3072 38.4397 71.8521 36.7608 71.8521 34.7828V3.52366C71.863 2.58578 71.4957 1.6837 70.8322 1.02013C70.1692 0.357143 69.2665 -0.0107342 68.3292 0.000238612ZM51.0061 7.68812H69.4866V28.8298H51.0061V7.68812ZM68.3292 2.36574H52.2985C51.6252 2.36574 51.0061 2.85028 51.0061 3.52366V5.32262H69.4866V3.52366C69.4987 3.21353 69.3803 2.91207 69.1608 2.69204C68.9408 2.47258 68.6393 2.35419 68.3292 2.36574ZM7.98347 16.4542C7.98058 14.0702 9.90775 12.1333 12.2923 12.1234H48.6406V15.5239H12.2195C11.5664 15.5239 11.0882 16.1181 11.0882 16.7713V27.7949H7.98347V16.4542ZM30.9824 69.4869C31.4208 69.5007 31.8453 69.3333 32.156 69.0237C32.4412 68.7252 32.5885 68.3215 32.5625 67.9097C32.5625 67.9036 32.5536 67.9016 32.5446 67.8996C32.5357 67.8976 32.5267 67.8955 32.5267 67.8895V32.791C32.5267 31.3657 31.4271 30.1604 29.9984 30.1604H4.89665C3.47134 30.1604 2.3654 31.3657 2.3654 32.7944V66.9556C2.35674 67.6308 2.62124 68.2799 3.09827 68.7569C3.57587 69.2334 4.22558 69.4967 4.90069 69.4869H30.9824ZM30.0018 27.7949H13.4537V17.8894H48.6406V34.7828C48.6706 36.7909 50.2911 38.4108 52.2985 38.4397H58.3983V49.9715H43.9962C43.6653 49.9744 43.3499 50.1153 43.1264 50.3602L42.0101 51.5539C41.19 52.4352 40.039 52.9336 38.8349 52.9284H34.8911V32.7875C34.8911 30.0622 32.7306 27.7949 30.0018 27.7949ZM62.4669 59.7292C64.8607 59.724 66.8046 57.7928 66.8254 55.3984V52.337H44.5148L43.7496 53.1536C42.4814 54.5212 40.6997 55.2968 38.8349 55.2939H34.8911V59.7292H62.4669ZM63.8685 49.9715H60.7638V38.4397H63.8685V49.9715ZM52.2985 36.0742H68.3292C69.0026 36.0742 69.4866 35.4568 69.4866 34.7828V31.1953H51.0061V34.7828C51.0344 35.4845 51.5974 36.047 52.2985 36.0742Z" fill="black"/>
</svg>

<svg xmlns="http://www.w3.org/2000/svg" width="72" height="72"><path d="M31.195 32.674c0-.654-.529-1.183-1.183-1.183H4.88c-.653 0-1.183.53-1.183 1.183v31.195c0 .653.53 1.182 1.183 1.182h25.133c.654 0 1.183-.53 1.183-1.182V32.674zM28.83 62.686H6.062v-28.83H28.83v28.83zm-10.194 3.4h-2.37a1.182 1.182 0 100 2.366h2.37a1.183 1.183 0 000-2.366z"/><path d="M68.33 0H52.298C50.32 0 48.64 1.545 48.64 3.523v6.235H12.292a6.694 6.694 0 00-6.674 6.696v11.34h-.724C2.168 27.795 0 30.063 0 32.792v34.168a4.864 4.864 0 004.897 4.893h26.086a3.91 3.91 0 002.835-1.183c.743-.765 1.221-1.737 1.073-2.798v-5.777h27.576a6.736 6.736 0 006.724-6.696V51.17a1.23 1.23 0 00-1.223-1.198h-1.734V38.44h2.095c1.978 0 3.523-1.678 3.523-3.656V3.523A3.483 3.483 0 0068.33 0zM51.005 7.688h18.48V28.83h-18.48V7.688zM52.3 2.366h16.03a1.12 1.12 0 011.158 1.157v1.8h-18.48v-1.8c0-.673.618-1.157 1.292-1.157zM7.984 16.454a4.326 4.326 0 014.308-4.33h36.349v3.4H12.22c-.654 0-1.132.594-1.132 1.247v11.024H7.984V16.454zm24.172 52.57c-.31.309-.735.477-1.173.463H4.9a2.5 2.5 0 01-2.536-2.532v-34.16c0-1.43 1.106-2.635 2.532-2.635h25.101c1.43 0 2.529 1.205 2.529 2.63v35.1c0 .011.036.007.036.02.026.411-.122.815-.407 1.113zm-2.154-41.23H13.454V17.89H48.64v16.894a3.712 3.712 0 003.658 3.656h6.1v11.532H43.995c-.33.003-.646.144-.87.389l-1.116 1.194a4.312 4.312 0 01-3.175 1.374h-3.944v-20.14c0-2.726-2.16-4.993-4.89-4.993zm36.823 27.604a4.368 4.368 0 01-4.358 4.331H34.891v-4.435h3.944a6.689 6.689 0 004.915-2.14l.765-.817h22.31v3.061zm-2.956-5.427h-3.105V38.44h3.105v11.532zm4.46-13.897H52.3a1.347 1.347 0 01-1.293-1.291v-3.588h18.48v3.588c0 .674-.483 1.29-1.157 1.29z"/><path d="M61.947 32.23h-3.105a1.183 1.183 0 000 2.365h3.105a1.182 1.182 0 100-2.365z"/></svg>
